X:0298
T:Quick Step 44th. Regt.
M:2/4
L:1/8
Q:1/4=88
I: :: ::
Z:Jack Campin * www.campin.me.uk * 2009
K:G
g/f/|gdBG|c2ce|dgdB|cAAf|gdBG|c2ce|dgdc|BGG:|
f   |g2fe|aAAf|g2fe|fddf|g2fe|afge|dgdc|BGG:|
<end>
<start>
